pk/hair-brush.svg

<svg viewBox="0 0 48 48" fill="none" xmlns="http://www.w3.org/2000/svg" height="1em" width="1em">
  <path d="M18.1968 31.4243C21.321 34.5485 28.919 32.0158 35.1674 25.7674C41.4158 19.519 43.9484 11.9211 40.8242 8.79688" stroke="black" stroke-width="4" stroke-linecap="round" stroke-linejoin="round"/>
  <path d="M27.3887 6.67529L28.8029 8.08951" stroke="black" stroke-width="4" stroke-linecap="round" stroke-linejoin="round"/>
  <path d="M22.4395 11.625L23.8537 13.0392" stroke="black" stroke-width="4" stroke-linecap="round" stroke-linejoin="round"/>
  <path d="M18.1963 17.2822L19.6105 18.6964" stroke="black" stroke-width="4" stroke-linecap="round" stroke-linejoin="round"/>
  <path d="M16.7822 24.353L18.1964 25.7672" stroke="black" stroke-width="4" stroke-linecap="round" stroke-linejoin="round"/>
  <path d="M35.167 4.5542L36.5812 5.96841" stroke="black" stroke-width="4" stroke-linecap="round" stroke-linejoin="round"/>
  <path d="M33.7529 13.0396L36.5814 15.868" stroke="black" stroke-width="4" stroke-linecap="round" stroke-linejoin="round"/>
  <path d="M28.8037 17.9893L31.6321 20.8177" stroke="black" stroke-width="4" stroke-linecap="round" stroke-linejoin="round"/>
  <path d="M23.1465 22.2319L25.9749 25.0604" stroke="black" stroke-width="4" stroke-linecap="round" stroke-linejoin="round"/>
  <rect x="16.0752" y="29.3027" width="6" height="14" rx="3" transform="rotate(45 16.0752 29.3027)" stroke="black" stroke-width="4" stroke-linecap="round" stroke-linejoin="round"/>
</svg>

<svg viewBox="0 0 48 48" fill="none" xmlns="http://www.w3.org/2000/svg" height="1em" width="1em">
  <path d="M18.197 31.424c3.124 3.124 10.722.592 16.97-5.657 6.249-6.248 8.781-13.846 5.657-16.97M27.389 6.675l1.414 1.415m-6.363 3.535 1.414 1.414m-5.658 4.243 1.414 1.414m-2.828 5.657 1.414 1.414M35.167 4.554l1.414 1.414m-2.828 7.072 2.828 2.828m-7.777 2.122 2.828 2.828m-8.486 1.414 2.829 2.828" stroke="#000" stroke-width="4" stroke-linecap="round" stroke-linejoin="round"/>
  <rect x="16.075" y="29.303" width="6" height="14" rx="3" transform="rotate(45 16.075 29.303)" stroke="#000" stroke-width="4" stroke-linecap="round" stroke-linejoin="round"/>
</svg>
